X: 20824
T: Johnny's
R: jig
M: 6/8
K: Dmajor
|:Add cdA-|Add cdA|dB/c/d ede|f2f edB|
Add cdA-|Add cdA|dB/c/d efg|1 fdc d3:|2 fdc def||
gBB BAG|ABA f2f|gAA cBc|edd def|
gBB BAG|ABA f2f|gAA cBc|edd def|
gBB BAG|ABA f2f|gAA cBc|edd dBA|
BB/B/B BAG|ABA f2f|gAA cBc|edd d3||

